X:1
T:25 Lieder
T:Der Wassermann
T:15. Der Wassermann 
T:Corona Elisabeth Wilhelmine Schröter
T:Johann Wolfgang von Goethe
T:25 Lieder
T:NOTES TO TRANSCRIBER: 1. Full German text for the extra lyric verses of Der Wassermann is available on Lieder.net: https://www.lieder.net/lieder/get_text.html?TextId=6442 2. Please transcribe into the Soprano clef, as published in the original IMSLP edition: the reviewer will convert staves to Treble clef before the score is published to the Lieder Corpus. 3. In the Piano RH, you can notate the two voices as a chord in a single voice where the rhythm is the same in both voices. 
T:Creative Commons copyright waiver (CC0 1.0 Universal)
C:Corona Elisabeth Wilhelmine Schröter
Z:Johann Wolfgang von Goethe
Z:Creative Commons copyright waiver (CC0 1.0 Universal)
L:1/8
Q:1/4=100
M:2/2
K:F
V:1 alto1 nm="Singstimme\nVoice"
V:1
"^In mässiger Bewegung und abenteuerlich" C | A2 A2 A2 AB | c2 (cB) A2 c2 | G2 G^F G ^F G A | %4
w: "O|Mut- ter gu- ten *|Rat mir * leiht, wie|soll ich * be- kom- men die|
 (G=F) (ED) C2 z C | B2 B A G2 F2 | E2 F2 G2 z C | c2 cB A2 G G |{G} F2 EF G2 z C | c2 cB A2 G B | %10
w: schö- * ne * Maid?" Sie|baut ihm ein Pferd von|Was- ser klar, und|Zaum und * Sat- tel von|San- de * gar, und|Zaum und * Sat- tel von|
 A2 G2 F2 z2 |] %11
w: San- de gar.|

